X: 42539
T: Whelan's Old Sow
R: jig
M: 6/8
K: Dmajor
DE|:FAF EFE|DFA dAG|(3FGA F EDE|F2D DFA|B2d A2d|
F2A AFD|1 FAF ~E3|F2D D2E:|2 FAd ded|ABF AFD||
DFA ~d3|B (3Bcd ecA|Aff d2e|fdf ecA|B2d A2d|
F2A AFD|1 FAd ded|ABF AFD:|2 FAF EDE|F2D D2E||

